X: 2
T: Christy Barry's
R: jig
M: 6/8
L: 1/8
K: Gmaj
DGG BAG|A2 B d2 e|ged BAG|AGA BGE|DGG BAG |A2 B d2 e|ged BAG|1 AGF G2 E:|2 AGF GBd|| ~g3 gfg|a2 g d2 e|ged BAG|AGA BGE|DGG BAG |A2 B d2 e|ged BAG|1 AGF GBd:|2 AGF G2 E||GFG BGG|A2 B d2 e|ged BGG|~A3 BGE|DGG BGG|A2 B d2 e|ged BGG|1 AGF G{A}GE:|2 AGF GBd||~g3 gfg|a2 g d2 e|ged BGG|~A3 BGE|DGG BGG |A2 B d2 e|ged BGG|1 AGF GBd:|2 AGF G2 E||


Tune 843	Setting 21443

